X: 30525
T: Ómós Sheamuis
R: reel
M: 4/4
K: Amixolydian
A2e2 d2e2|A2e2 dBg2|A2e2 d2e2|(3ffe fg ed (3BAG|
A2e2 d2e2|A2e2 dBg2|fefg gaed|1 efg2 ed (3BAG:|2 efg2 ed (3Bcd||
|:e2aa/a/ g2aa/a/|eaab gada|e2aa/a/ g2aa/a/|fefg ed (3Bcd|
e2aa/a/ g2aa/a/|eaab gada|fefg edBg-|1 gedB BBdz:|2 gggg gggg||

